X: 33
T: Hei meimao de gu niang
%%abc-version 2.0
%%abcx-abcm2ps-target-version 5.9.1 (29 Sep 2008)
%%abc-creator hum2abc beta
%%abcx-conversion-date 2013/10/02 07:44:27
%%abc-edited-by Helmut Schaffrath
%%humdrum-veritas 1119177420
%%humdrum-veritas-data 111032940
%%continueall 1
%%barnumbers 0
L: 1/16
M: 2/4
K: G
D G2 G G2 c B [I:setbarnb 1]| 
B2> B2B4 | 
B B2 G G d c B | 
B A2 cB4 | 
B B2 G G d c B | 
B A2 cB4 | 
c c2 c c d c2 | 
B c B A B A G2 | 
A2 A A A c B A | 
G2 d2 d3 B | 
c c2 c c d c2 | 
B c B AG4 | 
A2 A A A c B A | 
G2> G2G4 |]  



